X:122 
T:Martin Mulhaire's #9 (reel)
C:Martin Mulhaire (Galway/NY)
F:file ID: cre.5/122mart_m9
B:CRE5.132 (Ril MhÃÂÃÂÃÂÃÂ¡irtÃÂÃÂÃÂÃÂ­n UÃÂÃÂÃÂÃÂ­ MaolchÃÂÃÂÃÂÃÂ©ire Uimhir a Naoi)
L:1/8
Q:180
M:C
R:reel
K:D
G|F2AF DFAF|G2BG DGBd|cAeA ceAc|dcde fdAG|
F2AF DFAF|GBB2 DBB2|Acef gece|1 d2dc dBA:|\
[2 d2dc de||
|:fg|a2fd adfd|adfd edBd|edef gfga|beed efgb|
a2fd adfd|adfd edAG|FGAF GBdB|1 AFGE D2:|\
[2 AFGE HD4|]

%%%

